X:1
T:Silver Hill, LM
T:Silver Hill, LM
T:Alan Jackson (1872–1929)
T:Public Domain Courtesy of the Cyber Hymnal™
C:Alan Jackson (1872–1929)
Z:Public Domain
Z:Courtesy of the Cyber Hymnal™
%%score ( 1 2 ) ( 3 4 )
L:1/8
Q:1/4=135
M:4/4
K:F
V:1 treble 
V:2 treble 
V:3 bass 
V:4 bass 
V:1
 [FA]4 [F^G]2 [FA]2 | [FB]6 [FA]2 | (G2 D2) (E2 G2) | [CF]8 | [EG]4 [EG]2 [EG]2 | [FA]4 [FA]4 | %6
 [Fc]4 ([GB]2 [FA]2) | [EG]8 | [FA]4 [FA]2 [FA]2 | [FB]4 [FB]4 | [G=B]4 B4 | [Ec]8 | %12
 [Fc]4 [FB]2 [FA]2 | (G2 D2) (G2 F2) | [CE]4 (D2 E2) | [CF]8 |] %16
V:2
 x8 | x8 | D4 C4 | x8 | x8 | x8 | x8 | x8 | x8 | x8 | x4 G2 F2 | x8 | x8 | D4 D4 | x4 C4 | x8 |] %16
V:3
 [F,C]4 [F,=B,]2 [F,C]2 | [F,D]6 [F,C]2 | [B,,B,]4 (G,2 B,2) | [F,A,]8 | [C,C]4 [C,C]2 [C,C]2 | %5
 [F,C]4 [F,C]4 | [A,C]4 C4 | [C,C]8 | [F,C]4 [F,C]2 [F,_E]2 | [B,,D]4 [B,,D]4 | [G,D]4 [G,D]4 | %11
 [C,C]8 | [F,A,]4 [F,D]2 [F,C]2 | [B,,B,]4 [B,,B,]4 | [C,B,]4 [C,B,]4 | [F,A,]8 |] %16
V:4
 x8 | x8 | x4 C,4 | x8 | x8 | x8 | x4 (E,2 F,2) | x8 | x8 | x8 | x8 | x8 | x8 | x8 | x8 | x8 |] %16

